64x64/apps/chrome-deceagebecbceejblnlcjooeohmmeldh-Default.svg

<svg height="64" width="64" xmlns="http://www.w3.org/2000/svg"><path d="m4 56v2c0 1.662 1.338 3 3 3h50c1.662 0 3-1.338 3-3v-2c0 1.662-1.338 3-3 3h-50c-1.662 0-3-1.338-3-3z" opacity=".2"/><rect fill="#4f4f4f" height="56" rx="3" width="56" x="4" y="4"/><path d="m7 4c-1.662 0-3 1.338-3 3v1c0-1.662 1.338-3 3-3h50c1.662 0 3 1.338 3 3v-1c0-1.662-1.338-3-3-3z" fill="#f4f4f7" opacity=".1"/><path d="m36 12h8v40l-7.842-1.053z" fill="#d44338"/><path d="m20 13v40l8-1v-39z" opacity=".2"/><path d="m20 12v40l8-1v-39z" fill="#d44338"/><path d="m20 13 16.156 38.949 7.844 1.051v-1l-7.842-1.053-.154-37.947h-.004l.082 20.203-8.082-20.203z" opacity=".2"/><path d="m20 12 16.158 38.948 7.842 1.052-16-40z" fill="#ff695e"/></svg>

<svg xmlns="http://www.w3.org/2000/svg" width="64" height="64" version="1"><path style="opacity:.2" d="M4 56v2c0 1.662 1.338 3 3 3h50c1.662 0 3-1.338 3-3v-2c0 1.662-1.338 3-3 3H7c-1.662 0-3-1.338-3-3z"/><rect style="fill:#4f4f4f" width="56" height="56" x="4" y="4" rx="3" ry="3"/><path style="opacity:.1;fill:#f4f4f7" d="M7 4C5.338 4 4 5.338 4 7v1c0-1.662 1.338-3 3-3h50c1.662 0 3 1.338 3 3V7c0-1.662-1.338-3-3-3H7z"/><path style="fill:#d44338" d="M36 12h8v40l-7.842-1.053z"/><path style="opacity:.2" d="M20 13v40l8-1V13z"/><path style="fill:#d44338" d="M20 12v40l8-1V12z"/><path style="opacity:.2" d="m20 13 16.156 38.949L44 53v-1l-7.842-1.053L36.004 13H36l.082 20.203L28 13h-8z"/><path style="fill:#ff695e" d="m20 12 16.158 38.948L44 52 28 12z"/></svg>
